content/assets/monogram.svg

<?xml version="1.0" encoding="UTF-8" standalone="no"?><!DOCTYPE svg PUBLIC "-//W3C//DTD SVG 1.1//EN" "http://www.w3.org/Graphics/SVG/1.1/DTD/svg11.dtd"><svg width="100%" height="100%" viewBox="0 0 4500 4500" version="1.1" xmlns="http://www.w3.org/2000/svg" xmlns:xlink="http://www.w3.org/1999/xlink" xml:space="preserve" xmlns:serif="http://www.serif.com/" style="fill-rule:evenodd;clip-rule:evenodd;stroke-linejoin:round;stroke-miterlimit:2;"><rect id="Artboard1" x="0" y="0" width="4500" height="4500" style="fill:none;"/><clipPath id="_clip1"><rect x="0" y="0" width="4500" height="4500"/></clipPath><g clip-path="url(#_clip1)"><g><path d="M4500,450c0,-248.365 -201.618,-450 -449.999,-450l-3600,0c-248.365,0 -450,201.635 -450,450l0,3600c0,248.381 201.635,449.999 450,449.999l3600,0c248.381,0 449.999,-201.618 449.999,-449.999l0,-3600Z" style="fill:#ffc229;"/><g><clipPath id="_clip2"><path d="M4500,450c0,-248.365 -201.618,-450 -449.999,-450l-3600,0c-248.365,0 -450,201.635 -450,450l0,3600c0,248.381 201.635,449.999 450,449.999l3600,0c248.381,0 449.999,-201.618 449.999,-449.999l0,-3600Z"/></clipPath><g clip-path="url(#_clip2)"><g id="Layer1"><g><path d="M849.303,1972.99l-192.394,-117.519l-0,-303.355l721.509,0l223.267,117.346l-0,303.528l-752.382,-0Z"/></g><g><path d="M1765.21,1158.05l28.98,-16.73l495.149,-0.666l72.143,41.657l0,222.174l-24.047,13.89l-31.486,-0l-9.558,908.438l54.001,152.19l-0,249.941l-48.096,111.08l-120.251,107.522l-107.201,51.574l-13.051,7.532l-336.707,-0l-192.407,-111.081l-80.208,-64.771l-40.044,-115.746l0,-83.314l24.048,-13.876l240.503,-0l72.156,41.657l4.719,21.568l19.329,11.157l207.87,0l32.633,-46.616l-0,-83.313l-71.29,-207.791l16.183,-651.405l-54.974,-291.718l-48.108,0l-96.204,-55.547l5.918,-197.806Z"/></g><g><path d="M2954.52,1711.9l219.842,-126.93l53.187,108.161l-576.41,332.788l-3.626,307.567l24.061,13.89l96.204,-0l226.213,-123.518l428.818,0l124.344,117.879l192.408,0l24.048,-23.901l-0,-309.353l-24.048,-13.89l-360.768,-0l-120.251,69.437l-59.786,-117.839l564.853,-312.619l-0,-263.831l-24.048,-13.877l-96.204,0l-48.109,27.767l-769.617,-0l-48.095,-27.767l-120.252,0l-24.061,13.877l0,305.487l66.211,38.445l255.086,-1.773Z"/></g><g><path d="M2664.43,2721.63l391.611,0l-51.049,395.743l-291.468,363.128l-199.436,150.563l-61.355,0l-276.129,-159.423l0,-70.843l214.758,-106.282l210.932,-214.792l62.136,-358.094Z"/></g></g></g></g></g></g></svg>

<?xml version="1.0" encoding="UTF-8" standalone="no"?>
<!DOCTYPE svg PUBLIC "-//W3C//DTD SVG 1.1//EN" "http://www.w3.org/Graphics/SVG/1.1/DTD/svg11.dtd">
<svg width="100%" height="100%" viewBox="0 0 960 960" version="1.1" xmlns="http://www.w3.org/2000/svg" xmlns:xlink="http://www.w3.org/1999/xlink" xml:space="preserve" xmlns:serif="http://www.serif.com/" style="fill-rule:evenodd;clip-rule:evenodd;stroke-linejoin:round;stroke-miterlimit:2;">
    <g id="Artboard1" transform="matrix(0.213333,0,0,0.213333,0,0)">
        <rect x="0" y="0" width="4500" height="4500" style="fill:none;"/>
    </g>
    <g transform="matrix(0.213333,0,0,0.213333,0,0)">
        <g>
            <path d="M4500,450C4500,201.635 4298.38,0 4050,0L450.001,0C201.636,0 0.001,201.635 0.001,450L0.001,4050C0.001,4298.38 201.636,4500 450.001,4500L4050,4500C4298.38,4500 4500,4298.38 4500,4050L4500,450Z" style="fill:rgb(255,196,0);"/>
            <g>
                <g>
                    <clipPath id="_clip1">
                        <path d="M4500,450C4500,201.635 4298.38,0 4050,0L450.001,0C201.636,0 0.001,201.635 0.001,450L0.001,4050C0.001,4298.38 201.636,4500 450.001,4500L4050,4500C4298.38,4500 4500,4298.38 4500,4050L4500,450Z"/>
                    </clipPath>
                    <g clip-path="url(#_clip1)">
                        <g id="Layer1">
                            <g>
                                <path d="M849.303,1972.99L656.909,1855.47L656.909,1552.12L1378.42,1552.12L1601.68,1669.46L1601.68,1972.99L849.303,1972.99Z"/>
                            </g>
                            <g>
                                <path d="M1765.21,1158.05L1794.19,1141.32L2289.34,1140.65L2361.48,1182.31L2361.48,1404.49L2337.43,1418.38L2305.95,1418.38L2296.39,2326.81L2350.39,2479L2350.39,2728.94L2302.3,2840.02L2182.05,2947.55L2074.84,2999.12L2061.79,3006.65L1725.09,3006.65L1532.68,2895.57L1452.47,2830.8L1412.43,2715.05L1412.43,2631.74L1436.48,2617.86L1676.98,2617.86L1749.13,2659.52L1753.85,2681.09L1773.18,2692.25L1981.05,2692.25L2013.68,2645.63L2013.68,2562.32L1942.39,2354.53L1958.58,1703.12L1903.6,1411.4L1855.5,1411.4L1759.29,1355.86L1765.21,1158.05Z"/>
                            </g>
                            <g>
                                <path d="M2954.52,1711.9L3174.36,1584.97L3227.55,1693.13L2651.14,2025.92L2647.51,2333.49L2671.57,2347.38L2767.78,2347.38L2993.99,2223.86L3422.81,2223.86L3547.15,2341.74L3739.56,2341.74L3763.61,2317.84L3763.61,2008.48L3739.56,1994.59L3378.79,1994.59L3258.54,2064.03L3198.76,1946.19L3763.61,1633.57L3763.61,1369.74L3739.56,1355.86L3643.36,1355.86L3595.25,1383.63L2825.63,1383.63L2777.54,1355.86L2657.28,1355.86L2633.22,1369.74L2633.22,1675.23L2699.43,1713.67L2954.52,1711.9Z"/>
                            </g>
                            <g>
                                <path d="M2664.43,2721.63L3056.04,2721.63L3004.99,3117.37L2713.52,3480.5L2514.09,3631.06L2452.73,3631.06L2176.6,3471.64L2176.6,3400.8L2391.36,3294.52L2602.29,3079.72L2664.43,2721.63Z"/>
                            </g>
                        </g>
                    </g>
                </g>
            </g>
        </g>
    </g>
</svg>
